X: 41090
T: Trip To Paris
R: jig
M: 6/8
K: Gmajor
|:dc|B3 GAB|A3 EFG|FEF DEF|GAB ABc|
BAB GAB|A3 EFG|FGA DEF|G3 [1G:|2 G2 B||
|:G2g gdc|Bcd GAB|A2a abg|fga def|
G2g gdc|Bcd efg|dcB AGF|G3 [1 G2 B:|2 G3||
|:G2g dcB|Bcd GAB|A2a abg|fga def|
gab afd|efg fdB|edc BcA|G3 G:|

